public/img/Tools/STATUS.svg

<?xml version="1.0" encoding="UTF-8"?>
<svg width="100px" height="114px" viewBox="0 0 100 114" version="1.1" xmlns="http://www.w3.org/2000/svg" xmlns:xlink="http://www.w3.org/1999/xlink">
    <!-- Generator: Sketch 42 (36781) - http://www.bohemiancoding.com/sketch -->
    <title>STATUS</title>
    <desc>Created with Sketch.</desc>
    <defs></defs>
    <g id="Page-1" stroke="none" stroke-width="1" fill="none" fill-rule="evenodd">
        <g id="Landing-Copy-3" transform="translate(-622.000000, -2623.000000)">
            <g id="STATUS" transform="translate(622.000000, 2623.000000)">
                <polygon id="Fill-1" fill="#00A9C7" points="49.9995 -0.0004 0.0005 28.3336 0.0005 85.0006 49.9995 113.3326 99.9995 85.0006 99.9995 28.3336"></polygon>
                <path d="M75.2654,63.0537 C73.8384,64.9787 71.5014,65.8377 67.6854,65.8377 C62.9424,65.8377 59.7624,64.2397 58.2504,61.1117 C56.0324,56.5057 55.3624,52.5177 56.5314,50.5067 C57.7004,48.4957 62.7184,47.5847 67.1184,47.5847 C71.5184,47.5847 76.1424,48.4277 77.1904,50.7647 C78.2384,53.1027 76.6064,61.1627 75.2654,63.0537 L75.2654,63.0537 Z M41.6984,61.0767 C40.1864,64.2057 37.0234,65.8037 32.2974,65.8037 C28.4814,65.8037 26.1614,64.9447 24.7174,63.0197 C23.2734,61.0947 21.6414,53.2227 22.7414,50.7647 C23.8414,48.3067 28.6194,47.5847 32.8124,47.5847 C37.0064,47.5847 42.4204,48.4957 43.5034,50.4897 C44.5864,52.4837 43.9324,56.4877 41.7844,61.0947 L41.6984,61.0767 Z M82.3294,46.6227 C77.5424,44.8087 72.4414,43.9667 67.3244,44.1477 C63.7194,44.0877 60.1284,44.6037 56.6854,45.6777 C54.5174,46.3937 52.2494,46.7647 49.9654,46.7777 C47.6814,46.7647 45.4144,46.3937 43.2454,45.6777 C39.8034,44.6037 36.2114,44.0877 32.6064,44.1477 C27.4904,43.9667 22.3894,44.8087 17.6014,46.6227 C17.3184,46.7477 17.1274,47.0187 17.1034,47.3277 L16.8284,51.4177 C16.8084,51.7837 17.0224,52.1217 17.3614,52.2597 C17.6804,52.3537 17.9734,52.5187 18.2204,52.7417 C18.2204,52.8787 18.3584,53.3427 18.4954,53.9787 C19.0274,56.8907 19.7624,59.7627 20.6954,62.5727 C21.4244,65.1237 23.3474,67.1627 25.8514,68.0377 C28.0104,68.8477 30.3014,69.2437 32.6064,69.2067 C34.8554,69.2387 37.0884,68.8187 39.1724,67.9697 C44.0014,65.8897 45.1534,62.8127 46.6144,58.7397 L47.1814,57.1417 C48.2124,54.2027 48.4014,53.8237 50.0174,53.8237 C51.6324,53.8237 51.8214,54.2027 52.8534,57.1417 C53.0254,57.6227 53.2144,58.1557 53.4204,58.7397 C54.8814,62.7267 56.0324,65.8897 60.8624,67.9697 C62.9414,68.8097 65.1684,69.2237 67.4104,69.1897 C69.7154,69.2257 72.0064,68.8287 74.1654,68.0207 C76.6704,67.1447 78.5934,65.1067 79.3214,62.5557 C80.2484,59.7787 80.9834,56.9417 81.5214,54.0647 C81.6594,53.4117 81.7454,52.9477 81.7964,52.8097 C82.0284,52.5567 82.3174,52.3627 82.6384,52.2427 C82.9774,52.1047 83.1914,51.7667 83.1714,51.4007 L82.8274,47.3447 C82.8034,47.0357 82.6124,46.7657 82.3294,46.6397 L82.3294,46.6227 Z" id="Fill-2" fill="#FFFFFF"></path>
            </g>
        </g>
    </g>
</svg>

<svg width="100" height="114" viewBox="0 0 100 114" xmlns="http://www.w3.org/2000/svg"><title>STATUS</title><g fill="none" fill-rule="evenodd"><path fill="#00A9C7" d="M50 0L0 28.334V85l50 28.332L100 85V28.334z"/><path d="M75.265 63.054c-1.427 1.925-3.764 2.784-7.58 2.784-4.743 0-7.923-1.598-9.435-4.726-2.218-4.606-2.888-8.594-1.719-10.605 1.17-2.011 6.187-2.922 10.587-2.922 4.4 0 9.024.843 10.072 3.18 1.048 2.338-.584 10.398-1.925 12.289zm-33.567-1.977c-1.512 3.129-4.675 4.727-9.4 4.727-3.817 0-6.137-.86-7.58-2.784-1.445-1.925-3.077-9.797-1.977-12.255 1.1-2.458 5.878-3.18 10.071-3.18 4.194 0 9.608.91 10.691 2.905 1.083 1.994.43 5.998-1.719 10.605l-.086-.018zM82.33 46.623a38.504 38.504 0 0 0-15.005-2.475 33.833 33.833 0 0 0-10.639 1.53 21.826 21.826 0 0 1-6.72 1.1 21.831 21.831 0 0 1-6.72-1.1 33.829 33.829 0 0 0-10.639-1.53 38.51 38.51 0 0 0-15.005 2.475.841.841 0 0 0-.498.705l-.275 4.09a.858.858 0 0 0 .533.842c.32.094.612.259.86.482 0 .137.137.6.274 1.237a63.476 63.476 0 0 0 2.2 8.594 8.166 8.166 0 0 0 5.156 5.465c2.16.81 4.45 1.206 6.755 1.169a16.77 16.77 0 0 0 6.566-1.237c4.83-2.08 5.981-5.157 7.442-9.23l.567-1.598c1.031-2.94 1.22-3.318 2.836-3.318 1.615 0 1.804.379 2.836 3.318.172.48.361 1.014.567 1.598 1.461 3.987 2.612 7.15 7.442 9.23a16.8 16.8 0 0 0 6.548 1.22 18.45 18.45 0 0 0 6.755-1.17 8.163 8.163 0 0 0 5.156-5.464 63.927 63.927 0 0 0 2.2-8.491c.138-.653.224-1.117.275-1.255.232-.253.521-.447.842-.567a.858.858 0 0 0 .533-.842l-.344-4.056a.843.843 0 0 0-.498-.705v-.017z" fill="#FFF"/></g></svg>
